X: 1605
T: Echo, The
R:hornpipe
N:"Collected by J. O'Neill"
B:O'Neill's 1605
Z:Transcribed by Michael Hogan
M:C|
L:1/8
K:D
"tr"(fe) | d>AF>A D2 F>A | d>fe>c d>cB>c | A2 c>e A2 c>e | (3fga e>f d>cB>A |
d>AF>A D2 F>A | d>fe>c d>cB>A | "tr"(gf)g>b a>fd>f | e>AB>c d2 :|
|: z2 | d>(g {a}(3gfg) b>(g {a}(3gfg) | (3gag b>g a>gf>g | A2 c>e A2 c>e | (3fga e>f d>cB>A |
d>(g {a}(3gfg) b>(g {a}(3gfg) | (3gag b>g a>gf>a | "tr"gfg>b a>fd>f | e>AB>c d2 :||


